icons/key.svg

<svg xmlns="http://www.w3.org/2000/svg" width="24" height="24" viewBox="0 0 24 24">
  <path d="M15,2 C18.8659932,2 22,5.13400675 22,9 C22,12.8659932 18.8659932,16 15,16 L14.9529146,15.999845 L14.9529146,15.999845 L12,16 L12,18 L10,18 L10,20 L8,20 L8,22 L4,22 C2.9456382,22 2.08183488,21.1841222 2.00548574,20.1492623 L2,20 L2,18 L8.47657178,11.5438536 C8.16887206,10.7553742 8,9.89740819 8,9 C8,5.13400675 11.1340068,2 15,2 Z M15,7 C13.8954305,7 13,7.8954305 13,9 C13,10.1045695 13.8954305,11 15,11 C16.1045695,11 17,10.1045695 17,9 C17,7.8954305 16.1045695,7 15,7 Z"/>
</svg>

<svg xmlns="http://www.w3.org/2000/svg" viewBox="0 0 24 24">
  <path d="M15 2a7 7 0 0 1 0 14h-3v2h-2v2H8v2H4a2 2 0 0 1-2-1.85V18l6.48-6.46A7 7 0 0 1 15 2zm0 5a2 2 0 1 0 0 4 2 2 0 0 0 0-4z"/>
</svg>
